Adwaita++-Dark/apps/16/reco.svg

<svg height="16" width="16" xmlns="http://www.w3.org/2000/svg">
  <path clip-rule="evenodd" d="m5.68394 7.97149c0 1.27381 1.04222 2.31601 2.31603 2.31601s2.31603-1.0422 2.31603-2.31601v-1.04543h.2715v1.10124c0 1.42906-1.15848 2.5875-2.58754 2.5875s-2.58753-1.15844-2.58753-2.5875v-1.10124h.27151zm4.90356-2.42862h-.2715v-2.20345c0-1.27381-1.04222-2.31603-2.31603-2.31603s-2.31603 1.04222-2.31603 2.31603v2.20345h-.27151v-1.00108h-.96736v3.55492c0 1.74363 1.25536 3.19409 2.91156 3.49679v1.5536c-1.3885.0663-2.44105.386-2.44105.843 0 .5152 1.3377 1.0099 2.98639 1.0099 1.64868 0 2.99123-.4947 2.99123-1.0099 0-.428-.9266-.7356-2.18555-.8274v-1.5815c1.62425-.3281 2.84725-1.76351 2.84725-3.48449v-3.55492h-.9674z" fill="#e6ddff" fill-rule="evenodd"/>
</svg>

<svg xmlns="http://www.w3.org/2000/svg" width="16" height="16" version="1.1">
 <path fill="#E6DDFF" fill-rule="evenodd" d="M5.68394 7.97149C5.68394 9.2453 6.72616 10.2875 7.99997 10.2875C9.27378 10.2875 10.316 9.2453 10.316 7.97149V6.92606H10.5875V8.0273C10.5875 9.45636 9.42902 10.6148 7.99996 10.6148C6.5709 10.6148 5.41243 9.45636 5.41243 8.0273V6.92606H5.68394V7.97149ZM10.5875 5.54287H10.316V3.33942C10.316 2.06561 9.27378 1.02339 7.99997 1.02339C6.72616 1.02339 5.68394 2.06561 5.68394 3.33942V5.54287H5.41243V4.54179H4.44507V8.09671C4.44507 9.84034 5.70043 11.2908 7.35663 11.5935V13.1471C5.96813 13.2134 4.91558 13.5331 4.91558 13.9901C4.91558 14.5053 6.25328 15 7.90197 15C9.55065 15 10.8932 14.5053 10.8932 13.9901C10.8932 13.5621 9.9666 13.2545 8.70765 13.1627V11.5812C10.3319 11.2531 11.5549 9.81769 11.5549 8.09671V4.54179H10.5875V5.54287Z" clip-rule="evenodd"/>
</svg>
